X:1
T:Fresno, 87.87 D
T:Fresno, 87.87 D
T:Daniel Brink Towner, 1898
T:Public Domain Courtesy of the Cyber Hymnal™
C:Daniel Brink Towner, 1898
Z:Public Domain
Z:Courtesy of the Cyber Hymnal™
%%score ( 1 2 ) ( 3 4 )
L:1/8
Q:1/4=100
M:4/4
K:F
V:1 treble 
V:2 treble 
V:3 bass 
V:4 bass 
V:1
 [Fc]2 [FA]2 [Fd][Fc][FB][FA] | [Ec]4 [EB]4 | [EB]2 [EG]2 [Ec][EB][EA][EG] | [FA]6 z2 | %4
 [FA]2 [CF]2 [FB][FA][CG][CF] | [DG]4 [B,D]4 | [A,C][CF][CE][CF] [FA]2 [EG]2 | F6 z2 | B4 G4 x | %9
 c4 A4 | [EG][FA][F=B][Ec] [Fd]2 [FG]2 | c6 (z2 !fermata!B2) | [FA]2 [CF]2 BAGF | G4 D4 | %14
 [A,C][CF][CE][CF] [FA]2 [EG]2 | F6 z2 |] %16
V:2
 x8 | x8 | x8 | x8 | x8 | x8 | x8 | F6 x2 | (EF) (GF) (E2 C2) x | (CE) (FE) F2 F2 | x8 | %11
 E2 F2 G4 x2 | x4 F2 C2 | (DDDD) (B,2 B,2) | x8 | F6 x2 |] %16
V:3
 [F,A,]2 [F,C]2 [F,B,][F,A,][F,D][F,C] | [G,C]4 [G,C]4 | [C,C]2 [C,B,]2 [C,G,][C,G,][C,C][C,C] | %3
 [F,C]6 z2 | [F,C]2 [F,A,]2 [F,D][F,C][F,B,][F,A,] | [B,,B,]4 [B,,F,]4 | %6
 [C,F,][C,A,][C,G,][C,A,] [C,C]2 [C,B,]2 | [F,A,]6 z2 | C2 C2 C3 (z B,) | %9
 [F,A,][B,C] C2 [F,C]2 [A,C]2 | [B,C][A,C][G,D][G,C] [G,=B,]2 [G,B,]2 | C4 [E,C]4 x2 | %12
 [F,C]2 [F,A,]2 DCB,A, | B,4 F,4 | [C,F,][C,A,][C,G,][C,A,] [C,C]2 [C,B,]2 | [F,A,]6 z2 |] %16
V:4
 x8 | x8 | x8 | x8 | x8 | x8 | x8 | x8 | (C,D,) (E,D,) C,2 E,2 x | x2 (A,G,) x4 | x8 | C,2 D,2 x6 | %12
 x4 F,2 F,2 | (B,,B,,B,,B,,) (B,,2 B,,2) | x8 | x8 |] %16

